res/skins/LateNight/buttons/btn_loop_down.svg

<?xml version="1.0" encoding="UTF-8" standalone="no"?>
<!-- Created with Inkscape (http://www.inkscape.org/) -->

<svg
   xmlns:dc="http://purl.org/dc/elements/1.1/"
   xmlns:cc="http://creativecommons.org/ns#"
   xmlns:rdf="http://www.w3.org/1999/02/22-rdf-syntax-ns#"
   xmlns:svg="http://www.w3.org/2000/svg"
   xmlns="http://www.w3.org/2000/svg"
   xmlns:xlink="http://www.w3.org/1999/xlink"
   version="1.1"
   width="26"
   height="26"
   id="svg14046">
  <metadata
     id="metadata14058">
    <rdf:RDF>
      <cc:Work
         rdf:about="">
        <dc:format>image/svg+xml</dc:format>
        <dc:type
           rdf:resource="http://purl.org/dc/dcmitype/StillImage" />
        <dc:title></dc:title>
      </cc:Work>
    </rdf:RDF>
  </metadata>
  <defs
     id="defs14056">
    <linearGradient
       id="linearGradient3801-6-9-9">
      <stop
         id="stop3803-7-1-95"
         style="stop-color:#ce0e0e;stop-opacity:1"
         offset="0" />
      <stop
         id="stop4329-2"
         style="stop-color:#dd0000;stop-opacity:1"
         offset="0.28" />
      <stop
         id="stop3805-5-28-1"
         style="stop-color:#8d0000;stop-opacity:1"
         offset="1" />
    </linearGradient>
    <linearGradient
       x1="15"
       y1="1049.3622"
       x2="15"
       y2="1027.3622"
       id="linearGradient4370"
       xlink:href="#linearGradient3801-6-9-0"
       gradientUnits="userSpaceOnUse"
       gradientTransform="translate(0,-1026.3622)" />
    <linearGradient
       id="linearGradient3801-6-9-0">
      <stop
         id="stop3803-7-1-9"
         style="stop-color:#aa1112;stop-opacity:1"
         offset="0" />
      <stop
         id="stop4329-4"
         style="stop-color:#b60607;stop-opacity:1"
         offset="0.28" />
      <stop
         id="stop3805-5-28-5"
         style="stop-color:#760607;stop-opacity:1"
         offset="1" />
    </linearGradient>
    <linearGradient
       x1="13"
       y1="1027.3622"
       x2="13"
       y2="1049.3622"
       id="linearGradient3807-3"
       xlink:href="#linearGradient3801-6"
       gradientUnits="userSpaceOnUse"
       gradientTransform="translate(0,-1026.3622)" />
    <linearGradient
       id="linearGradient3801-6">
      <stop
         id="stop3803-7"
         style="stop-color:#242424;stop-opacity:1"
         offset="0" />
      <stop
         id="stop3805-5"
         style="stop-color:#101010;stop-opacity:1"
         offset="1" />
    </linearGradient>
    <linearGradient
       x1="15"
       y1="1049.3622"
       x2="15"
       y2="1027.3622"
       id="linearGradient3878"
       xlink:href="#linearGradient3801-6-5"
       gradientUnits="userSpaceOnUse"
       gradientTransform="translate(0,-1026.3622)" />
    <linearGradient
       id="linearGradient3801-6-5">
      <stop
         id="stop3803-7-6"
         style="stop-color:#222222;stop-opacity:1"
         offset="0" />
      <stop
         id="stop3805-5-2"
         style="stop-color:#131516;stop-opacity:1"
         offset="1" />
    </linearGradient>
    <linearGradient
       x1="15"
       y1="1049.3622"
       x2="15"
       y2="1027.3622"
       id="linearGradient4550"
       xlink:href="#linearGradient3801-6-5"
       gradientUnits="userSpaceOnUse"
       gradientTransform="translate(0,-1026.3622)" />
  </defs>
  <rect
     width="23"
     height="23.000017"
     rx="2"
     ry="2"
     x="0.5"
     y="0.49998301"
     id="rect3029-9"
     style="color:#000000;fill:url(#linearGradient4550);fill-opacity:1;fill-rule:nonzero;stroke:none;stroke-width:1;marker:none;visibility:visible;display:inline;overflow:visible;enable-background:accumulate" />
  <g
     id="g3463-5"
     style="fill:#080808;fill-opacity:1;display:inline">
    <path
       d="m 5.00025,9.1879374 1.499875,1.1561246 -2.5e-4,6.655876 C 6.4998535,17.571231 7.428698,18.500037 8,18.500031 l 7,-6.2e-5 0,-3 7,3.750031 -7,3.75 0,-3 -7,6.3e-5 c -1.644706,1.4e-5 -3,-1.355295 -3,-3 z"
       id="path14050-36-3"
       style="color:#000000;fill:#080808;fill-opacity:1;marker:none;overflow:visible" />
    <path
       d="m 20.99975,16.812063 -1.499875,-1.156125 2.5e-4,-6.6558758 C 19.50015,8.3313923 18.717368,7.4999623 18,7.4999688 l -7,6.24e-5 0,2.9999998 L 4,6.75 11,3 l 0,3 7,-6.25e-5 c 1.644706,-1.47e-5 3,1.355295 3,3 z"
       id="path14050-3-7-5"
       style="color:#000000;fill:#080808;fill-opacity:1;marker:none;overflow:visible" />
  </g>
  <path
     d="m 4.00025,8.1879374 1.499875,1.1561248 -2.5e-4,6.6558758 C 5.4998535,16.571231 6.428698,17.500037 7,17.500031 l 7,-6.2e-5 0,-3 7,3.750031 -7,3.75 0,-3 -7,6.3e-5 c -1.644706,1.4e-5 -3,-1.355295 -3,-3 z"
     id="path14050-6"
     style="color:#000000;fill:#8d8f90;fill-opacity:1;marker:none;display:inline;overflow:visible" />
  <path
     d="m 19.99975,15.812063 -1.499875,-1.156125 2.5e-4,-6.6558758 C 18.50015,7.3313923 17.717368,6.4999623 17,6.4999688 l -7,6.24e-5 0,3 L 3,5.75 10,2 l 0,3 7,-6.25e-5 c 1.644706,-1.47e-5 3,1.355295 3,3 z"
     id="path14050-3-2"
     style="color:#000000;fill:#8d8f90;fill-opacity:1;marker:none;display:inline;overflow:visible" />
  <path
     d="M 2,0 C 0.90064862,0 0,0.90064862 0,2 l 0,20 c 0,1.099351 0.90064862,2 2,2 l 20,0 c 1.099351,0 2,-0.900649 2,-2 L 24,2 C 24,0.90064862 23.099351,0 22,0 z M 2.3,1 21.7,1 C 22.262649,1 23,1.7373514 23,2.3 l 0,19.4 C 23,22.262649 22.262649,23 21.7,23 L 2.3,23 C 1.7373514,23 1,22.262649 1,21.7 L 1,2.3 C 1,1.7373514 1.7373514,1 2.3,1 z"
     id="rect3029-96-0-9"
     style="font-size:medium;font-style:normal;font-variant:normal;font-weight:normal;font-stretch:normal;text-indent:0;text-align:start;text-decoration:none;line-height:normal;letter-spacing:normal;word-spacing:normal;text-transform:none;direction:ltr;block-progression:tb;writing-mode:lr-tb;text-anchor:start;baseline-shift:baseline;color:#000000;fill:#454748;fill-opacity:1;fill-rule:nonzero;stroke:none;stroke-width:1;marker:none;visibility:visible;display:inline;overflow:visible;enable-background:accumulate;font-family:Sans;-inkscape-font-specification:Sans" />
</svg>

<svg id="svg14046" width="26" height="26" version="1.1" xmlns="http://www.w3.org/2000/svg"><defs id="defs14056"><linearGradient id="linearGradient4550" x1="15" x2="15" y1="1049.4" y2="1027.4" gradientTransform="translate(0 -1026.4)" gradientUnits="userSpaceOnUse"><stop id="stop3803-7-6" stop-color="#222" offset="0"/><stop id="stop3805-5-2" stop-color="#131516" offset="1"/></linearGradient></defs><rect id="rect3029-9" x=".5" y=".49998" width="23" height="23" rx="2" ry="2" color="#000000" fill="url(#linearGradient4550)"/><g id="g3463-5" fill="#080808"><path id="path14050-36-3" d="m5.0002 9.1879 1.4999 1.1561-2.5e-4 6.6559c-2.15e-5 0.57129 0.92882 1.5001 1.5001 1.5001l7-6.2e-5v-3l7 3.75-7 3.75v-3l-7 6.3e-5c-1.6447 1.4e-5 -3-1.3553-3-3z" color="#000000"/><path id="path14050-3-7-5" d="m21 16.812-1.4999-1.1561 2.5e-4 -6.6559c2.5e-5 -0.66867-0.78276-1.5001-1.5001-1.5001l-7 6.24e-5v3l-7-3.75 7-3.75v3l7-6.25e-5c1.6447-1.47e-5 3 1.3553 3 3z" color="#000000"/></g><path id="path14050-6" d="m4.0002 8.1879 1.4999 1.1561-2.5e-4 6.6559c-2.15e-5 0.57129 0.92882 1.5001 1.5001 1.5001l7-6.2e-5v-3l7 3.75-7 3.75v-3l-7 6.3e-5c-1.6447 1.4e-5 -3-1.3553-3-3z" color="#000000" fill="#8d8f90"/><path id="path14050-3-2" d="m20 15.812-1.4999-1.1561 2.5e-4 -6.6559c2.5e-5 -0.66867-0.78276-1.5001-1.5001-1.5001l-7 6.24e-5v3l-7-3.75 7-3.75v3l7-6.25e-5c1.6447-1.47e-5 3 1.3553 3 3z" color="#000000" fill="#8d8f90"/><path id="rect3029-96-0-9" d="m2 0c-1.0994 0-2 0.90065-2 2v20c0 1.0994 0.90065 2 2 2h20c1.0994 0 2-0.90065 2-2v-20c0-1.0994-0.90065-2-2-2zm0.3 1h19.4c0.56265 0 1.3 0.73735 1.3 1.3v19.4c0 0.56265-0.73735 1.3-1.3 1.3h-19.4c-0.56265 0-1.3-0.73735-1.3-1.3v-19.4c0-0.56265 0.73735-1.3 1.3-1.3z" color="#000000" fill="#454748" style="block-progression:tb;text-indent:0;text-transform:none"/></svg>
